X:765
T:Sine Bhan 
C:Joe Buchanan's Scottish Tome - Page 528.2
I:528 2
Z:Carl Allison
R:Slow Air
L:1/4
M:3/4
K:D
"D"D2 D | "D7"E2 F | "G"B2 A | "D"A3 | "Bm"F2 E | F A2 | "Em7"A2 F | "A7"E3 |
"D"D2 D | "D7"E2 F | "G"B2 A | "D"D3 | "Bm"D2 D | "Em7"F2 F | "A7"E3 | "D"D3 |
"C"D2 D | "D7"E2 F | "G"d2 B | "D"B A2 | "Bm"d2 B | B A2 | "Em7"d2 F | "A7"E3 |
"D"D2 D | "D7"E2 F | "G"d2 B | "D"B A2 | "Bm"D2 D | "Em7"F2 F | "A7"E3 | "D"D3 |

